!!!!SEGMENT: pl-cz--iii-114--003_dankowski-adalbert--vesperae-d-judicabit.krn
!!!cenid: 18xx:808
!!!COM: Dankowski, Adalbert
!!!COM-rismID: pe30000793
!!!CDT: ~1760-~1836
!!!CNT: Polish
!!!OPR: Vesperae D
!!!OTL: Judicabit
!!!OMV: 003
!!!PDT:
!!!AGN: Sacred; Vespers
!!!SMS-siglum: PL-CZ
!!!SMS-shelfmark: III-114
!!!SMS-shelfwork: 001-003 M
!!!SMS-variant:
!!!SMS-altvar:
!!!NIFC-rismSourceID: 300000113
!!!NIFC-rismChildID: 300000113
!!!NIFC-islandoraID: pl-cz:34509
!!!URL-pdf-islandora: https://repozytorium.nifc.pl/islandora/object/pl-cz%3A34509/datastream/PDF/view
!!!URL-scan: https://polish.musicsources.pl/pl/lokalizacje/galeria/rekopisy/6831/1 @EN{Scan on Polish Music Sources Website} @PL{Skany w portalu Dziedzictwo Muzyki Polskiej w otwartym dostępie}
!!!IIIF:
!!!ONB-nifc: UWAGA: części Vesperae: Dixit Dominus, Juravit Dominus, Judicabit, Gloria, Laudate pueri,
!!!AIN: 1 alto 1 bass 2 cor 2 flt 1 organ 1 soprn 1 tenor 2 violn
!!!key: f#
**kern	**fba	**dynam	**kern	**dynam	**kern	**kern	**text	**kern	**text	**kern	**text	**kern	**text	**kern	**kern	**kern	**kern
*	*	*	*group4	*	*group4	*group3	*	*group3	*	*group3	*	*group3	*	*group2	*group2	*group1	*group1
*part11	*part11	*part11	*part10	*part10	*part9	*part8	*part8	*part7	*part7	*part6	*part6	*part5	*part5	*part4	*part3	*part2	*part1
*staff11	*	*	*staff10	*	*staff9	*staff8	*staff8	*staff7	*staff7	*staff6	*staff6	*staff5	*staff5	*staff4	*staff3	*staff2	*staff1
*I"Organo	*	*	*I"Violino Secondo	*	*I"[Violino Primo]	*I"Baſso	*	*I"Tenore	*	*I"Alto	*	*I"Canto	*	*I"Cornu Secondo Ex D:	*I"Cornu Primo Ex D:	*I"[Flauto Secondo]	*I"[Flauto Primo]
*I'org	*	*	*I'vl 2	*	*I'[vl 1]	*I'B	*	*I'T	*	*I'A	*	*I'S	*	*I'cor 2 in D	*I'cor 1 in D	*I'[fl 2]	*I'[fl 1]
*Iorgan	*	*	*Ivioln	*	*Ivioln	*Ibass	*	*Itenor	*	*Ialto	*	*Isoprn	*	*Icor	*Icor	*Iflt	*Iflt
*ICklav	*	*	*ICstr	*	*ICstr	*ICvox	*	*ICvox	*	*ICvox	*	*ICvox	*	*ICbras	*ICbras	*ICww	*ICww
*IGcont	*	*	*	*	*	*IGcoro	*	*IGcoro	*	*IGcoro	*	*IGcoro	*	*	*	*	*
*clefF4	*	*	*clefG2	*	*clefG2	*clefF4	*	*clefC4	*	*clefC3	*	*clefC1	*	*clefG2	*clefG2	*clefG2	*clefG2
*	*	*	*	*	*ITrd-1c-2	*	*	*	*	*	*	*	*	*ITrd-1c-2	*ITrd-1c-2	*	*
*k[f#c#g#]	*	*	*k[f#c#g#]	*	*k[f#c#g#]	*k[f#c#g#]	*	*k[c#f#g#]	*	*k[f#c#g#]	*	*k[f#c#g#]	*	*k[f#c#g#]	*k[f#c#g#]	*k[f#c#g#]	*k[f#c#g#]
*f#:	*	*	*f#:	*	*f#:	*f#:	*	*f#:	*	*f#:	*	*f#:	*	*f#:	*f#:	*f#:	*f#:
*M3/4	*	*	*M3/4	*	*M3/4	*M3/4	*	*M3/4	*	*M3/4	*	*M3/4	*	*M3/4	*M3/4	*M3/4	*M3/4
=1	=1	=1	=1	=1	=1	=1	=1	=1	=1	=1	=1	=1	=1	=1	=1	=1	=1
!	!	!	!	!	!LO:TX:a:t=P:problem=brak partii w źródle	!	!	!	!	!	!	!LO:TX:t=P:problem=znaki f# cc# g#	!	!LO:TX:a:t=Judicabit Tacet	!LO:TX:a:t=Judicabit Tacet	!LO:TX:a:t=P:problem=brak partii w źródle	!LO:TX:a:t=P:problem=brak partii w źródle
!LO:TX:a:i:t=Tarde Solo&colon;	!	!	!LO:TX:a:t=Tarde	!LO:DY:t=f.	!	!LO:TX:a:i:t=Tarde	!	!LO:TX:a:i:t=Tarde	!	!LO:TX:a:i:t=Tarde	!	!LO:TX:a:i:t=Tarde	!	!	!	!	!
8.F#\L	.	.	8.ff#\L	f	2.ryy	0.r	.	0.r	.	0.r	.	2.r	.	2.ryy	2.ryy	2.ryy	2.ryy
16F#\K	.	.	16cc#\Jk	.	.	.	.	.	.	.	.	.	.	.	.	.	.
8.F#\	.	.	8.a\L	.	.	.	.	.	.	.	.	.	.	.	.	.	.
16F#\K	.	.	16cc#\K	.	.	.	.	.	.	.	.	.	.	.	.	.	.
8.F#\	.	.	8.ff#\	.	.	.	.	.	.	.	.	.	.	.	.	.	.
16F#\Jk	.	.	16aa\Jk	.	.	.	.	.	.	.	.	.	.	.	.	.	.
=2	=2	=2	=2	=2	=2	=2	=2	=2	=2	=2	=2	=2	=2	=2	=2	=2	=2
8.E#X\L	6_ 5_	.	8.gg#\L	.	2.ryy	.	.	.	.	.	.	2.r	.	2.ryy	2.ryy	2.ryy	2.ryy
16E#\K	.	.	16cc#\Jk	.	.	.	.	.	.	.	.	.	.	.	.	.	.
8.E#\	.	.	8.b\L	.	.	.	.	.	.	.	.	.	.	.	.	.	.
16E#\K	.	.	16cc#\K	.	.	.	.	.	.	.	.	.	.	.	.	.	.
8.E#\	.	.	8.ee#X\	.	.	.	.	.	.	.	.	.	.	.	.	.	.
16E#\Jk	X X	.	16gg#\Jk	.	.	.	.	.	.	.	.	.	.	.	.	.	.
=3	=3	=3	=3	=3	=3	=3	=3	=3	=3	=3	=3	=3	=3	=3	=3	=3	=3
8.F#\L	.	.	8.aa\L	.	2.ryy	.	.	.	.	.	.	2.r	.	2.ryy	2.ryy	2.ryy	2.ryy
16F#\K	.	.	16cc#\Jk	.	.	.	.	.	.	.	.	.	.	.	.	.	.
8.F#\	.	.	8.a\L	.	.	.	.	.	.	.	.	.	.	.	.	.	.
16F#\K	.	.	16cc#\K	.	.	.	.	.	.	.	.	.	.	.	.	.	.
8.A\	6	.	8.ff#\	.	.	.	.	.	.	.	.	.	.	.	.	.	.
16A\Jk	.	.	16cc#\Jk	.	.	.	.	.	.	.	.	.	.	.	.	.	.
=4	=4	=4	=4	=4	=4	=4	=4	=4	=4	=4	=4	=4	=4	=4	=4	=4	=4
!LO:TX:a:t=P:problem=mixed beam	!	!	!	!	!	!	!	!	!	!	!	!	!	!	!	!	!
8.B\L	6\_	.	8.dd\L	.	2.ryy	.	.	.	.	.	.	2.r	.	2.ryy	2.ryy	2.ryy	2.ryy
16B\K	.	.	16gg#\Jk	.	.	.	.	.	.	.	.	.	.	.	.	.	.
8.c#\	4	.	8.ff#\L	.	.	.	.	.	.	.	.	.	.	.	.	.	.
16c#\K	.	.	16a\K	.	.	.	.	.	.	.	.	.	.	.	.	.	.
8.C#/	#	.	8.g#\	.	.	.	.	.	.	.	.	.	.	.	.	.	.
16C#/Jk	.	.	16ee#X\Jk	.	.	.	.	.	.	.	.	.	.	.	.	.	.
!LO:LB:g=original	!	!	!	!	!	!	!	!	!	!	!	!	!	!	!	!	!
=5	=5	=5	=5	=5	=5	=5	=5	=5	=5	=5	=5	=5	=5	=5	=5	=5	=5
*	*	*	*	*	*	*2\right	*	*2\right	*	*2\right	*	*2\right	*	*	*	*	*
!LO:TX:a:t=tutti	!	!	!	!	!	!	!	!	!	!	!	!	!	!	!	!	!
8.F#\L	.	.	8.ff#\L	.	2.ryy	2F#\	Ju-	2A\	Ju-	2a\	Ju-	2cc#\	Ju-	2.ryy	2.ryy	2.ryy	2.ryy
16F#\K	.	.	16cc#\Jk	.	.	.	.	.	.	.	.	.	.	.	.	.	.
8.F#\	.	.	8.a\L	.	.	.	.	.	.	.	.	.	.	.	.	.	.
16F#\K	.	.	16cc#\K	.	.	.	.	.	.	.	.	.	.	.	.	.	.
8.F#\	.	.	8.ff#\	.	.	4F#\	-di-	4A\	-di-	4a\	-di-	4cc#\	-di-	.	.	.	.
16F#\Jk	.	.	16aa\Jk	.	.	.	.	.	.	.	.	.	.	.	.	.	.
!	!	!	!LO:LB:g=original	!	!	!	!	!	!	!	!	!	!	!	!	!	!
=6	=6	=6	=6	=6	=6	=6	=6	=6	=6	=6	=6	=6	=6	=6	=6	=6	=6
8.E#X\L	6_ 5_	.	8.gg#\L	.	2.ryy	4E#X\	-ca-	4B\	-ca-	4g#\	-ca-	4cc#\	-ca-	2.ryy	2.ryy	2.ryy	2.ryy
16E#\K	.	.	16cc#\Jk	.	.	.	.	.	.	.	.	.	.	.	.	.	.
!	!	!	!	!	!	!	!	!	!	!LO:SIC:v:s=4g#\	!	!	!	!	!	!	!
8.E#\	.	.	8.b\L	.	.	4E#\	-bit	4B\	-bit	4f#\	-bit	4cc#\	-bit	.	.	.	.
16E#\K	.	.	16cc#\K	.	.	.	.	.	.	.	.	.	.	.	.	.	.
!	!	!	!	!	!	!	!	!	!	!LO:SIC:v:s=4g#\	!	!	!	!	!	!	!
8.E#\	.	.	8.ee#X\	.	.	4E#\	in	4B\	in	4f#\	in	4cc#\	in	.	.	.	.
16E#\Jk	X X	.	16gg#\Jk	.	.	.	.	.	.	.	.	.	.	.	.	.	.
=7	=7	=7	=7	=7	=7	=7	=7	=7	=7	=7	=7	=7	=7	=7	=7	=7	=7
8.F#\L	.	.	8.aa\L	.	2.ryy	2F#\	na-	2A\	na-	2a\	na-	2cc#\	na-	2.ryy	2.ryy	2.ryy	2.ryy
16F#\K	.	.	16cc#\Jk	.	.	.	.	.	.	.	.	.	.	.	.	.	.
8.F#\	.	.	8.a\L	.	.	.	.	.	.	.	.	.	.	.	.	.	.
16F#\K	.	.	16cc#\K	.	.	.	.	.	.	.	.	.	.	.	.	.	.
8.A\	6	.	8.ff#\	.	.	4A\	-ti-	4c#\	-ti-	4a\	-ti-	4cc#\	-ti-	.	.	.	.
16A\Jk	.	.	16cc#\Jk	.	.	.	.	.	.	.	.	.	.	.	.	.	.
=8	=8	=8	=8	=8	=8	=8	=8	=8	=8	=8	=8	=8	=8	=8	=8	=8	=8
!LO:TX:a:t=P:problem=mixed beam	!	!	!	!	!	!	!	!	!	!	!	!	!	!	!	!	!
8.B\L	6\	.	8.dd\L	.	2.ryy	(4B\	-o-	(4d\	-o-	4b\	-o-	(4b\	-o-	2.ryy	2.ryy	2.ryy	2.ryy
16B\K	.	.	16gg#\Jk	.	.	.	.	.	.	.	.	.	.	.	.	.	.
8.c#\	4	.	8.ff#\L	.	.	4c#\)	.	4c#\)	.	4a\	-ni-	4a\)	.	.	.	.	.
16c#\K	.	.	16a\K	.	.	.	.	.	.	.	.	.	.	.	.	.	.
8.C#/	@	.	8.g#\	.	.	4C#/	-ni-	4c#\	-ni-	4g#\	-bus	4g#\	-ni-	.	.	.	.
16C#/Jk	.	.	16ee#X\Jk	.	.	.	.	.	.	.	.	.	.	.	.	.	.
=9	=9	=9	=9	=9	=9	=9	=9	=9	=9	=9	=9	=9	=9	=9	=9	=9	=9
8.F#\L	.	.	8.ff#\L	.	2.ryy	2F#\	-bus	2c#\	-bus	2a\	im-	2a\	-bus	2.ryy	2.ryy	2.ryy	2.ryy
16F#\K	.	.	16cc#\Jk	.	.	.	.	.	.	.	.	.	.	.	.	.	.
8.F#\	.	.	8.a\L	.	.	.	.	.	.	.	.	.	.	.	.	.	.
16F#\K	.	.	16cc#\K	.	.	.	.	.	.	.	.	.	.	.	.	.	.
8.A#X\	6 n5r	.	8.ff#\	.	.	4A#X\	im	4c#\	im	4cc#\	.	8ff#\L	im	.	.	.	.
.	.	.	.	.	.	.	.	.	.	.	.	8een\J	.	.	.	.	.
16A#\Jk	.	.	16een\Jk	.	.	.	.	.	.	.	.	.	.	.	.	.	.
=10	=10	=10	=10	=10	=10	=10	=10	=10	=10	=10	=10	=10	=10	=10	=10	=10	=10
8.B\L	.	.	8.dd\L	.	2.ryy	4B\	ple-	4f#\	ple-	4b\	-ple-	4dd\	ple-	2.ryy	2.ryy	2.ryy	2.ryy
16B\K	.	.	16b\Jk	.	.	.	.	.	.	.	.	.	.	.	.	.	.
8.B\	.	.	8.dd\L	.	.	4B\	-bit	4f#\	-bit	4b\	-bit	4dd\	-bit	.	.	.	.
16B\Jk	.	.	16ff#\K	.	.	.	.	.	.	.	.	.	.	.	.	.	.
!LO:LB:g=original	!	!	!	!	!	!	!	!	!	!	!	!	!	!	!	!	!
8.D#X\L	6_ 5_	.	8.bb\	.	.	4D#X\	ru-	4f#\	ru-	8b\L	ru-	4ff#\	ru-	.	.	.	.
.	.	.	.	.	.	.	.	.	.	8a\J	.	.	.	.	.	.	.
16D#\Jk	X X	.	16aa\Jk	.	.	.	.	.	.	.	.	.	.	.	.	.	.
!	!	!	!	!	!	!	!	!	!	!LO:LB:g=original	!	!LO:LB:g=original	!	!	!	!	!
=11	=11	=11	=11	=11	=11	=11	=11	=11	=11	=11	=11	=11	=11	=11	=11	=11	=11
8.E\L	.	.	8.gg#\L	.	2.ryy	4E\	-i-	4d\	-i-	4g#\	-i-	4ee\	-i-	2.ryy	2.ryy	2.ryy	2.ryy
16E\K	.	.	16b\Jk	.	.	.	.	.	.	.	.	.	.	.	.	.	.
8.E\	.	.	8.g#\L	.	.	4E\	-nas	4d\	-nas	4g#\	-nas	4ee\	-nas	.	.	.	.
16E\K	.	.	16b\K	.	.	.	.	.	.	.	.	.	.	.	.	.	.
!	!	!	!	!	!	!LO:LB:g=original	!	!LO:LB:g=original	!	!	!	!	!	!	!	!	!
8.G#\	6_ 5_	.	8.ee\	.	.	8G#\	Con-	8e\	Con-	8b\	Con-	8ee\	Con-	.	.	.	.
.	.	.	.	.	.	8G#\	-qvaſ-	8e\	-qvaſ-	8b\	-qvaſ-	8dd\	-qvaſ-	.	.	.	.
16G#\Jk	X X	.	16dd\Jk	.	.	.	.	.	.	.	.	.	.	.	.	.	.
!	!	!	!LO:LB:g=original	!	!	!	!	!	!	!	!	!	!	!	!	!	!
=12	=12	=12	=12	=12	=12	=12	=12	=12	=12	=12	=12	=12	=12	=12	=12	=12	=12
8.A\L	.	.	8.cc#\L	.	2.ryy	4A\	-sa-	4e\	-sa-	4a\	-sa-	4cc#\	-sa-	2.ryy	2.ryy	2.ryy	2.ryy
16A\K	.	.	16a\Jk	.	.	.	.	.	.	.	.	.	.	.	.	.	.
8.A\	.	.	8.cc#\L	.	.	4A\	-bit	4e\	-bit	4a\	-bit	4cc#\	-bit	.	.	.	.
16A\K	.	.	16ee\K	.	.	.	.	.	.	.	.	.	.	.	.	.	.
8.C#\	6 n5r	.	8.aa\	.	.	8C#/	Ca-	8A\	Ca-	8a\	Ca-	8ee\	Ca-	.	.	.	.
.	.	.	.	.	.	8C#/	-pi-	8A\	-pi-	8gn\	-pi-	8ee\	-pi-	.	.	.	.
16C#\Jk	.	.	16ggn\Jk	.	.	.	.	.	.	.	.	.	.	.	.	.	.
=13	=13	=13	=13	=13	=13	=13	=13	=13	=13	=13	=13	=13	=13	=13	=13	=13	=13
8.D\L	.	.	8.ff#\L	.	2.ryy	2D\	-ta	2A\	-ta	2f#\	-ta	2dd\	-ta	2.ryy	2.ryy	2.ryy	2.ryy
16D\K	.	.	16aa\K	.	.	.	.	.	.	.	.	.	.	.	.	.	.
8.D\	.	.	8.ff#\	.	.	.	.	.	.	.	.	.	.	.	.	.	.
16D\K	.	.	16aa\Jk	.	.	.	.	.	.	.	.	.	.	.	.	.	.
8.D\	6_	.	8.bb\L	.	.	4D\	in	4B\	in	8b\L	in	4ff#\	in	.	.	.	.
.	.	.	.	.	.	.	.	.	.	8a\J	.	.	.	.	.	.	.
16D\Jk	.	.	16aa\Jk	.	.	.	.	.	.	.	.	.	.	.	.	.	.
=14	=14	=14	=14	=14	=14	=14	=14	=14	=14	=14	=14	=14	=14	=14	=14	=14	=14
8.E\L	#_	.	8.gg#X\L	.	2.ryy	(4E\	ter-	2B\	ter-	2g#X\	ter-	2ee\	ter-	2.ryy	2.ryy	2.ryy	2.ryy
16E\K	.	.	16bb\K	.	.	.	.	.	.	.	.	.	.	.	.	.	.
8.D\	.	.	8.ee\	.	.	4D\)	.	.	.	.	.	.	.	.	.	.	.
16D\K	.	.	16gg#\K	.	.	.	.	.	.	.	.	.	.	.	.	.	.
8.C#\	6	.	8.aa\	.	.	4C#\	-ra	4c#\	-ra	4a\	-ra	4ee\	-ra	.	.	.	.
16C#\Jk	.	.	16ee\Jk	.	.	.	.	.	.	.	.	.	.	.	.	.	.
=15	=15	=15	=15	=15	=15	=15	=15	=15	=15	=15	=15	=15	=15	=15	=15	=15	=15
!LO:TX:a:t=P:problem=mixed beam	!	!	!	!	!	!	!	!	!	!	!	!	!	!	!	!	!
8.D\L	6	.	8.ff#\L	.	2.ryy	4D\	mul-	4f#\	mul-	4b\	mul-	4dd\	mul-	2.ryy	2.ryy	2.ryy	2.ryy
16D\K	.	.	16dd\Jk	.	.	.	.	.	.	.	.	.	.	.	.	.	.
8.E\	4	.	8.cc#\L	.	.	2E\	-to-	2e\	-to-	4a\	-to-	4cc#\	-to-	.	.	.	.
16E\K	.	.	16aa\K	.	.	.	.	.	.	.	.	.	.	.	.	.	.
8.EE/	3	.	8.b\	.	.	.	.	.	.	4g#\	.	4b\	.	.	.	.	.
16EE/Jk	.	.	16gg#\Jk	.	.	.	.	.	.	.	.	.	.	.	.	.	.
!LO:LB:g=original	!	!	!	!	!	!	!	!	!	!	!	!	!	!	!	!	!
=16	=16	=16	=16	=16	=16	=16	=16	=16	=16	=16	=16	=16	=16	=16	=16	=16	=16
!	!	!	!LO:TX:a:t=P:problem=mixed beam	!	!	!	!	!	!	!	!	!	!	!	!	!	!
4AA/	.	.	8aa\L	.	2.ryy	4A\	-rum	4e\	-rum	4a\	-rum	4cc#\	-rum	2.ryy	2.ryy	2.ryy	2.ryy
!	!	!	!	!LO:DY:a:t=p&colon;	!	!	!	!	!	!	!	!	!	!	!	!	!
.	.	.	8a/	p	.	.	.	.	.	.	.	.	.	.	.	.	.
4r	.	.	8a/	.	.	4r	.	4r	.	4r	.	4r	.	.	.	.	.
.	.	.	8a/	.	.	.	.	.	.	.	.	.	.	.	.	.	.
4r	.	.	8a/	.	.	4r	.	4r	.	4r	.	4r	.	.	.	.	.
.	.	.	8a/J	.	.	.	.	.	.	.	.	.	.	.	.	.	.
=17	=17	=17	=17	=17	=17	=17	=17	=17	=17	=17	=17	=17	=17	=17	=17	=17	=17
0.r	.	.	8d/L	.	2.ryy	0.r	.	0.r	.	0.r	.	0.r	.	2.ryy	2.ryy	2.ryy	2.ryy
.	.	.	8d/	.	.	.	.	.	.	.	.	.	.	.	.	.	.
.	.	.	8e/	.	.	.	.	.	.	.	.	.	.	.	.	.	.
.	.	.	8e/	.	.	.	.	.	.	.	.	.	.	.	.	.	.
.	.	.	8e/	.	.	.	.	.	.	.	.	.	.	.	.	.	.
.	.	.	8e/J	.	.	.	.	.	.	.	.	.	.	.	.	.	.
!	!	!	!LO:LB:g=original	!	!	!	!	!	!	!	!	!	!	!	!	!	!
=18	=18	=18	=18	=18	=18	=18	=18	=18	=18	=18	=18	=18	=18	=18	=18	=18	=18
.	.	.	8a/L	.	2.ryy	.	.	.	.	.	.	.	.	2.ryy	2.ryy	2.ryy	2.ryy
.	.	.	8a/	.	.	.	.	.	.	.	.	.	.	.	.	.	.
.	.	.	8a/	.	.	.	.	.	.	.	.	.	.	.	.	.	.
.	.	.	8a/	.	.	.	.	.	.	.	.	.	.	.	.	.	.
.	.	.	8a/	.	.	.	.	.	.	.	.	.	.	.	.	.	.
.	.	.	8a/J	.	.	.	.	.	.	.	.	.	.	.	.	.	.
=19	=19	=19	=19	=19	=19	=19	=19	=19	=19	=19	=19	=19	=19	=19	=19	=19	=19
.	.	.	8d/L	.	2.ryy	.	.	.	.	.	.	.	.	2.ryy	2.ryy	2.ryy	2.ryy
.	.	.	8d/	.	.	.	.	.	.	.	.	.	.	.	.	.	.
.	.	.	8e/	.	.	.	.	.	.	.	.	.	.	.	.	.	.
.	.	.	8e/	.	.	.	.	.	.	.	.	.	.	.	.	.	.
.	.	.	8e/	.	.	.	.	.	.	.	.	.	.	.	.	.	.
.	.	.	8e/J	.	.	.	.	.	.	.	.	.	.	.	.	.	.
=20	=20	=20	=20	=20	=20	=20	=20	=20	=20	=20	=20	=20	=20	=20	=20	=20	=20
.	.	.	4a/	.	2.ryy	.	.	.	.	.	.	.	.	2.ryy	2.ryy	2.ryy	2.ryy
.	.	.	4A/	.	.	.	.	.	.	.	.	.	.	.	.	.	.
.	.	.	4r	.	.	.	.	.	.	.	.	.	.	.	.	.	.
=21	=21	=21	=21	=21	=21	=21	=21	=21	=21	=21	=21	=21	=21	=21	=21	=21	=21
1.r	.	.	4e/	.	2.ryy	0.r	.	0.r	.	0.r	.	0.r	.	2.ryy	2.ryy	2.ryy	2.ryy
.	.	.	4e/	.	.	.	.	.	.	.	.	.	.	.	.	.	.
.	.	.	4r	.	.	.	.	.	.	.	.	.	.	.	.	.	.
=22	=22	=22	=22	=22	=22	=22	=22	=22	=22	=22	=22	=22	=22	=22	=22	=22	=22
.	.	.	4a/	.	2.ryy	.	.	.	.	.	.	.	.	2.ryy	2.ryy	2.ryy	2.ryy
.	.	.	4A/	.	.	.	.	.	.	.	.	.	.	.	.	.	.
.	.	.	4r	.	.	.	.	.	.	.	.	.	.	.	.	.	.
=23	=23	=23	=23	=23	=23	=23	=23	=23	=23	=23	=23	=23	=23	=23	=23	=23	=23
2.r	.	.	8d/L	.	2.ryy	.	.	.	.	.	.	.	.	2.ryy	2.ryy	2.ryy	2.ryy
.	.	.	8d/	.	.	.	.	.	.	.	.	.	.	.	.	.	.
.	.	.	8e/	.	.	.	.	.	.	.	.	.	.	.	.	.	.
.	.	.	8e/	.	.	.	.	.	.	.	.	.	.	.	.	.	.
.	.	.	8e/	.	.	.	.	.	.	.	.	.	.	.	.	.	.
.	.	.	8e/J	.	.	.	.	.	.	.	.	.	.	.	.	.	.
=24	=24	=24	=24	=24	=24	=24	=24	=24	=24	=24	=24	=24	=24	=24	=24	=24	=24
8r	.	.	8a/L	.	2.ryy	.	.	.	.	.	.	.	.	2.ryy	2.ryy	2.ryy	2.ryy
(16A\LL	.	.	(16a/L	.	.	.	.	.	.	.	.	.	.	.	.	.	.
16G#\JJ)	.	.	16g#/JJ)	.	.	.	.	.	.	.	.	.	.	.	.	.	.
8A\L|	.	.	8a'/L	.	.	.	.	.	.	.	.	.	.	.	.	.	.
8E\|	.	.	8e'/	.	.	.	.	.	.	.	.	.	.	.	.	.	.
8F#\|	.	.	8f#'/	.	.	.	.	.	.	.	.	.	.	.	.	.	.
8C#\J|	.	.	8c#'/J	.	.	.	.	.	.	.	.	.	.	.	.	.	.
=25	=25	=25	=25	=25	=25	=25	=25	=25	=25	=25	=25	=25	=25	=25	=25	=25	=25
8D\L|	.	.	8d'/L	.	2.ryy	0.r	.	0.r	.	0.r	.	2.r	.	2.ryy	2.ryy	2.ryy	2.ryy
(16F#\L	.	.	(16f#/L	.	.	.	.	.	.	.	.	.	.	.	.	.	.
16E\JJ)	.	.	16e/JJ)	.	.	.	.	.	.	.	.	.	.	.	.	.	.
!LO:TX:a:t=P:problem=mixed beam	!	!	!LO:LB:g=original	!	!	!	!	!	!	!	!	!	!	!	!	!	!
8D\L	.	.	8d/L	.	.	.	.	.	.	.	.	.	.	.	.	.	.
8D\	6	.	8b/	.	.	.	.	.	.	.	.	.	.	.	.	.	.
8E\	4	.	8a/	.	.	.	.	.	.	.	.	.	.	.	.	.	.
8EE/J	3	.	8g#/J	.	.	.	.	.	.	.	.	.	.	.	.	.	.
!	!	!	!	!	!	!	!	!	!	!	!	!LO:LB:g=original	!	!	!	!	!
=26	=26	=26	=26	=26	=26	=26	=26	=26	=26	=26	=26	=26	=26	=26	=26	=26	=26
!LO:TX:a:t=P:problem=mixed beam	!	!LO:DY:a:t=pio&colon;	!	!LO:DY:a:t=p&colon;	!	!	!	!	!	!	!	!LO:TX:a:i:t=Solo&colon;	!	!	!	!	!
8AA/L	.	p	8e/L	p	2.ryy	.	.	.	.	.	.	2.ee\	De-	2.ryy	2.ryy	2.ryy	2.ryy
8A\	.	.	8e/	.	.	.	.	.	.	.	.	.	.	.	.	.	.
8A\	.	.	8e/	.	.	.	.	.	.	.	.	.	.	.	.	.	.
8A\	.	.	8e/	.	.	.	.	.	.	.	.	.	.	.	.	.	.
8A\	.	.	8e/	.	.	.	.	.	.	.	.	.	.	.	.	.	.
8A\J	.	.	8e/J	.	.	.	.	.	.	.	.	.	.	.	.	.	.
=27	=27	=27	=27	=27	=27	=27	=27	=27	=27	=27	=27	=27	=27	=27	=27	=27	=27
8r	.	.	8r	.	2.ryy	.	.	.	.	.	.	2.ee\	.	2.ryy	2.ryy	2.ryy	2.ryy
8G#\L	6_	.	8e/L	.	.	.	.	.	.	.	.	.	.	.	.	.	.
8G#\	.	.	8e/	.	.	.	.	.	.	.	.	.	.	.	.	.	.
8G#\	.	.	8e/	.	.	.	.	.	.	.	.	.	.	.	.	.	.
8G#\	.	.	8e/	.	.	.	.	.	.	.	.	.	.	.	.	.	.
8G#\J	X	.	8e/J	.	.	.	.	.	.	.	.	.	.	.	.	.	.
!LO:LB:g=original	!	!	!	!	!	!	!	!	!	!	!	!	!	!	!	!	!
=28	=28	=28	=28	=28	=28	=28	=28	=28	=28	=28	=28	=28	=28	=28	=28	=28	=28
8r	.	.	8r	.	2.ryy	.	.	.	.	.	.	2ee\	.	2.ryy	2.ryy	2.ryy	2.ryy
8A\L	.	.	8e/L	.	.	.	.	.	.	.	.	.	.	.	.	.	.
8A\	.	.	8e/	.	.	.	.	.	.	.	.	.	.	.	.	.	.
8A\	.	.	8e/	.	.	.	.	.	.	.	.	.	.	.	.	.	.
8A\	.	.	8e/	.	.	.	.	.	.	.	.	16dd\LL	.	.	.	.	.
.	.	.	.	.	.	.	.	.	.	.	.	16cc#\JJ	.	.	.	.	.
8A\J	.	.	8e/J	.	.	.	.	.	.	.	.	16b\LL	-tor	.	.	.	.
.	.	.	.	.	.	.	.	.	.	.	.	16a\JJ	.	.	.	.	.
=29	=29	=29	=29	=29	=29	=29	=29	=29	=29	=29	=29	=29	=29	=29	=29	=29	=29
8r	.	.	8r	.	2.ryy	0.r	.	0.r	.	0.r	.	8g#\L	ren-	2.ryy	2.ryy	2.ryy	2.ryy
8D\L	.	.	8g#/L	.	.	.	.	.	.	.	.	16f#\L	.	.	.	.	.
.	.	.	.	.	.	.	.	.	.	.	.	16g#\JJ	.	.	.	.	.
8A\	.	.	8e/	.	.	.	.	.	.	.	.	4a\	-te	.	.	.	.
8A\	.	.	8e/	.	.	.	.	.	.	.	.	.	.	.	.	.	.
8A\	.	.	8e/	.	.	.	.	.	.	.	.	8r	.	.	.	.	.
8A\J	.	.	8e/J	.	.	.	.	.	.	.	.	8ee\	in	.	.	.	.
=30	=30	=30	=30	=30	=30	=30	=30	=30	=30	=30	=30	=30	=30	=30	=30	=30	=30
8r	.	.	8r	.	2.ryy	.	.	.	.	.	.	16ee\LL	vi-	2.ryy	2.ryy	2.ryy	2.ryy
.	.	.	.	.	.	.	.	.	.	.	.	16dd\	.	.	.	.	.
8D\L	6_	.	8f#/L	.	.	.	.	.	.	.	.	16cc#\	.	.	.	.	.
.	.	.	.	.	.	.	.	.	.	.	.	16b\JJ	.	.	.	.	.
8D\	.	.	8f#/	.	.	.	.	.	.	.	.	4b\	-a	.	.	.	.
8D\	.	.	8f#/	.	.	.	.	.	.	.	.	.	.	.	.	.	.
8D\	.	.	8f#/	.	.	.	.	.	.	.	.	8r	.	.	.	.	.
8D\J	X	.	8f#/J	.	.	.	.	.	.	.	.	8dd\	in	.	.	.	.
=31	=31	=31	=31	=31	=31	=31	=31	=31	=31	=31	=31	=31	=31	=31	=31	=31	=31
8r	.	.	8r	.	2.ryy	.	.	.	.	.	.	16dd\LL	vi-	2.ryy	2.ryy	2.ryy	2.ryy
.	.	.	.	.	.	.	.	.	.	.	.	16cc#\	.	.	.	.	.
8C#\L	6_	.	8e/L	.	.	.	.	.	.	.	.	16b\	.	.	.	.	.
.	.	.	.	.	.	.	.	.	.	.	.	16a\JJ	.	.	.	.	.
8C#\	.	.	8e/	.	.	.	.	.	.	.	.	4a\	-a	.	.	.	.
8C#\	.	.	8e/	.	.	.	.	.	.	.	.	.	.	.	.	.	.
8C#\	.	.	8e/	.	.	.	.	.	.	.	.	8r	.	.	.	.	.
8C#\J	X	.	8e/J	.	.	.	.	.	.	.	.	8cc#\	in	.	.	.	.
!	!	!	!LO:LB:g=original	!	!	!	!	!	!	!	!	!LO:LB:g=original	!	!	!	!	!
=32	=32	=32	=32	=32	=32	=32	=32	=32	=32	=32	=32	=32	=32	=32	=32	=32	=32
8r	.	.	8r	.	2.ryy	.	.	.	.	.	.	16cc#\LL	vi-	2.ryy	2.ryy	2.ryy	2.ryy
.	.	.	.	.	.	.	.	.	.	.	.	16b\	.	.	.	.	.
8D\L	6_	.	8d/L	.	.	.	.	.	.	.	.	16a\	.	.	.	.	.
.	.	.	.	.	.	.	.	.	.	.	.	16b\JJ	.	.	.	.	.
8D\	.	.	8d/	.	.	.	.	.	.	.	.	4b\	.	.	.	.	.
8D\	.	.	8d/	.	.	.	.	.	.	.	.	.	.	.	.	.	.
8D#X\	5	.	8c#/	.	.	.	.	.	.	.	.	4a\	-a	.	.	.	.
8D#\J	.	.	8c#/J	.	.	.	.	.	.	.	.	.	.	.	.	.	.
=33	=33	=33	=33	=33	=33	=33	=33	=33	=33	=33	=33	=33	=33	=33	=33	=33	=33
8r	.	.	8r	.	2.ryy	0.r	.	0.r	.	0.r	.	8a\L	bi-	2.ryy	2.ryy	2.ryy	2.ryy
8E\L	4	.	8c#/L	.	.	.	.	.	.	.	.	16g#\L	.	.	.	.	.
.	.	.	.	.	.	.	.	.	.	.	.	16a\JJ	.	.	.	.	.
8E\	3_	.	8B/	.	.	.	.	.	.	.	.	4g#\	-bet	.	.	.	.
8E\	.	.	8B/	.	.	.	.	.	.	.	.	.	.	.	.	.	.
8E\	.	.	8B/	.	.	.	.	.	.	.	.	4r	.	.	.	.	.
8E\J	X	.	8B/J	.	.	.	.	.	.	.	.	.	.	.	.	.	.
!LO:LB:g=original	!	!	!	!	!	!	!	!	!	!	!	!	!	!	!	!	!
=34	=34	=34	=34	=34	=34	=34	=34	=34	=34	=34	=34	=34	=34	=34	=34	=34	=34
8r	.	.	8r	.	2.ryy	.	.	.	.	.	.	2ee\	De-	2.ryy	2.ryy	2.ryy	2.ryy
8A\L	.	.	8c#/L	.	.	.	.	.	.	.	.	.	.	.	.	.	.
8A\	.	.	8c#/	.	.	.	.	.	.	.	.	.	.	.	.	.	.
8A\	.	.	8c#/	.	.	.	.	.	.	.	.	.	.	.	.	.	.
8A\	.	.	8c#/	.	.	.	.	.	.	.	.	16ff#\LL	.	.	.	.	.
.	.	.	.	.	.	.	.	.	.	.	.	16ee\JJ	.	.	.	.	.
8A\J	.	.	8c#/J	.	.	.	.	.	.	.	.	16dd\LL	-tor	.	.	.	.
.	.	.	.	.	.	.	.	.	.	.	.	16cc#\JJ	.	.	.	.	.
=35	=35	=35	=35	=35	=35	=35	=35	=35	=35	=35	=35	=35	=35	=35	=35	=35	=35
8r	.	.	8r	.	2.ryy	.	.	.	.	.	.	8cc#\L	ren-	2.ryy	2.ryy	2.ryy	2.ryy
8G#\L	6_	.	8B/L	.	.	.	.	.	.	.	.	8b\J	.	.	.	.	.
8G#\	.	.	8B/	.	.	.	.	.	.	.	.	4b\	-te	.	.	.	.
8G#\	.	.	8B/	.	.	.	.	.	.	.	.	.	.	.	.	.	.
8G#\	.	.	8B/	.	.	.	.	.	.	.	.	8r	.	.	.	.	.
8G#\J	X	.	8B/J	.	.	.	.	.	.	.	.	8ee\	in	.	.	.	.
=36	=36	=36	=36	=36	=36	=36	=36	=36	=36	=36	=36	=36	=36	=36	=36	=36	=36
8r	.	.	8r	.	2.ryy	.	.	.	.	.	.	2ee\	Vi-	2.ryy	2.ryy	2.ryy	2.ryy
8A\L	.	.	8c#/L	.	.	.	.	.	.	.	.	.	.	.	.	.	.
8A\	.	.	8c#/	.	.	.	.	.	.	.	.	.	.	.	.	.	.
8A\	.	.	8c#/	.	.	.	.	.	.	.	.	.	.	.	.	.	.
8A\	.	.	8c#/	.	.	.	.	.	.	.	.	16ff#\LL	.	.	.	.	.
.	.	.	.	.	.	.	.	.	.	.	.	16ee\JJ	.	.	.	.	.
8A\J	.	.	8c#/J	.	.	.	.	.	.	.	.	16dd\LL	-a	.	.	.	.
.	.	.	.	.	.	.	.	.	.	.	.	16cc#\JJ	.	.	.	.	.
=37	=37	=37	=37	=37	=37	=37	=37	=37	=37	=37	=37	=37	=37	=37	=37	=37	=37
8r	.	.	8r	.	2.ryy	0.r	.	0.r	.	0.r	.	8cc#\L	bi-	2.ryy	2.ryy	2.ryy	2.ryy
8G#\L	6_	.	8B/L	.	.	.	.	.	.	.	.	8b\J	.	.	.	.	.
8G#\	.	.	8B/	.	.	.	.	.	.	.	.	4b\	-bet	.	.	.	.
8G#\	.	.	8B/	.	.	.	.	.	.	.	.	.	.	.	.	.	.
!	!	!	!	!	!	!	!	!	!	!	!	!LO:LB:g=original	!	!	!	!	!
8G#\	.	.	8B/	.	.	.	.	.	.	.	.	8r	.	.	.	.	.
8G#\J	X	.	8B/J	.	.	.	.	.	.	.	.	8ee\	in	.	.	.	.
=38	=38	=38	=38	=38	=38	=38	=38	=38	=38	=38	=38	=38	=38	=38	=38	=38	=38
8r	.	.	8r	.	2.ryy	.	.	.	.	.	.	(4.ee\	vi-	2.ryy	2.ryy	2.ryy	2.ryy
8A\L	.	.	8c#/L	.	.	.	.	.	.	.	.	.	.	.	.	.	.
8A\	.	.	8c#/	.	.	.	.	.	.	.	.	.	.	.	.	.	.
8A\	.	.	8c#/J	.	.	.	.	.	.	.	.	16ff#\LL)	.	.	.	.	.
.	.	.	.	.	.	.	.	.	.	.	.	16gg#\JJ	.	.	.	.	.
!	!	!	!LO:LB:g=original	!	!	!	!	!	!	!	!	!	!	!	!	!	!
8A\	.	.	8c#/L	.	.	.	.	.	.	.	.	16aa\LL	.	.	.	.	.
.	.	.	.	.	.	.	.	.	.	.	.	16gg#\JJ	.	.	.	.	.
8A\J	.	.	8c#/J	.	.	.	.	.	.	.	.	16ff#\LL	-a	.	.	.	.
.	.	.	.	.	.	.	.	.	.	.	.	16ee\JJ	.	.	.	.	.
=39	=39	=39	=39	=39	=39	=39	=39	=39	=39	=39	=39	=39	=39	=39	=39	=39	=39
8r	.	.	8r	.	2.ryy	.	.	.	.	.	.	8ee\L	bi-	2.ryy	2.ryy	2.ryy	2.ryy
!LO:TX:a:t=P:problem=mixed beam	!	!	!	!	!	!	!	!	!	!	!	!	!	!	!	!	!
8G#\L	6_ 5_	.	8B/L	.	.	.	.	.	.	.	.	8dd\J	.	.	.	.	.
8G#\	.	.	8B/	.	.	.	.	.	.	.	.	4.dd\	-bet	.	.	.	.
8G#\	.	.	8B/	.	.	.	.	.	.	.	.	.	.	.	.	.	.
8A\	3_	.	8c#/	.	.	.	.	.	.	.	.	.	.	.	.	.	.
8AA/J	X	.	8c#/J	.	.	.	.	.	.	.	.	8cc#\	in	.	.	.	.
!LO:LB:g=original	!	!	!	!	!	!	!	!	!	!	!	!	!	!	!	!	!
=40	=40	=40	=40	=40	=40	=40	=40	=40	=40	=40	=40	=40	=40	=40	=40	=40	=40
!LO:TX:a:t=P:problem=mixed beam	!	!	!	!	!	!	!	!	!	!	!	!	!	!	!	!	!
8D\L	6	.	8d/L	.	2.ryy	.	.	.	.	.	.	16cc#\LL	vi-	2.ryy	2.ryy	2.ryy	2.ryy
.	.	.	.	.	.	.	.	.	.	.	.	16b\JJ	.	.	.	.	.
8D\	.	.	8d/	.	.	.	.	.	.	.	.	16dd\LL	-a	.	.	.	.
.	.	.	.	.	.	.	.	.	.	.	.	16b\JJ	.	.	.	.	.
8E\	4	.	8c#/	.	.	.	.	.	.	.	.	4a\	bi-	.	.	.	.
8E\	.	.	8c#/	.	.	.	.	.	.	.	.	.	.	.	.	.	.
8EE/	3	.	8B/	.	.	.	.	.	.	.	.	4b\	.	.	.	.	.
!	!	!	!	!	!	!LO:TX:b:t=Verte	!	!LO:TX:b:t=Verte	!	!LO:TX:b:t=Verte	!	!	!	!	!	!	!
8EE/J	.	.	8B/J	.	.	.	.	.	.	.	.	.	.	.	.	.	.
!	!	!	!	!	!	!LO:PB:g=original	!	!LO:PB:g=original	!	!LO:PB:g=original	!	!	!	!	!	!	!
=41	=41	=41	=41	=41	=41	=41	=41	=41	=41	=41	=41	=41	=41	=41	=41	=41	=41
!LO:TX:a:t=P:problem=mixed beam	!	!	!LO:TX:a:t=P:problem=mixed beam	!LO:DY:a:t=f&colon;	!	!	!	!	!	!	!	!	!	!	!	!	!
!LO:TX:a:t=tutti	!	!	!	!	!	!	!	!	!	!	!	!	!	!	!	!	!
8.AA/L	.	.	8.A/L	f	2.ryy	4r	.	4r	.	4r	.	4a\	-bet	2.ryy	2.ryy	2.ryy	2.ryy
16A\K	.	.	16cc#\Jk	.	.	.	.	.	.	.	.	.	.	.	.	.	.
8.A\	.	.	8.ee\L	.	.	2A\	pro-	2e\	pro-	2a\	pro-	2cc#\	pro-	.	.	.	.
16A\K	.	.	16cc#\K	.	.	.	.	.	.	.	.	.	.	.	.	.	.
8.A\	.	.	8.aa\	.	.	.	.	.	.	.	.	.	.	.	.	.	.
16A\Jk	.	.	16cc#\Jk	.	.	.	.	.	.	.	.	.	.	.	.	.	.
=42	=42	=42	=42	=42	=42	=42	=42	=42	=42	=42	=42	=42	=42	=42	=42	=42	=42
8.E\L	.	.	8.b\L	.	2.ryy	4E\	-pte-	4e\	-pte-	4g#\	-pte-	4b\	-pte-	2.ryy	2.ryy	2.ryy	2.ryy
16E\K	.	.	16ee\K	.	.	.	.	.	.	.	.	.	.	.	.	.	.
8.E\	.	.	8.gg#\	.	.	4E\	-re-	4e\	-re-	4g#\	-re-	4b\	-re-	.	.	.	.
16E\K	.	.	16ee\Jk	.	.	.	.	.	.	.	.	.	.	.	.	.	.
8.E#X\	6 5	.	8.cc#\L	.	.	4E#X\	-a	4c#\	-a	4g#\	-a	8cc#\L	-a	.	.	.	.
.	.	.	.	.	.	.	.	.	.	.	.	8b\J	.	.	.	.	.
16E#\Jk	.	.	16b\Jk	.	.	.	.	.	.	.	.	.	.	.	.	.	.
!	!	!	!	!	!	!	!	!	!	!	!	!LO:LB:g=original	!	!	!	!	!
=43	=43	=43	=43	=43	=43	=43	=43	=43	=43	=43	=43	=43	=43	=43	=43	=43	=43
8.F#\L	3_	.	8.a/L	.	2.ryy	8F#\	e-	8c#\	e-	8f#\	e-	8a\	e-	2.ryy	2.ryy	2.ryy	2.ryy
.	.	.	.	.	.	8F#\	-xal-	8c#\	-xal-	8f#\	-xal-	8a\	-xal-	.	.	.	.
16F#\K	.	.	16f#/K	.	.	.	.	.	.	.	.	.	.	.	.	.	.
8.F#\	.	.	8.a/	.	.	4F#\	-ta-	4c#\	-ta-	4f#\	-ta-	4a\	-ta-	.	.	.	.
16F#\K	.	.	16f#/K	.	.	.	.	.	.	.	.	.	.	.	.	.	.
8.F#\	.	.	8.a/	.	.	4F#\	-bit	4c#\	-bit	4f#\	-bit	4a\	-bit	.	.	.	.
16F#\Jk	X	.	16f#/Jk	.	.	.	.	.	.	.	.	.	.	.	.	.	.
=44	=44	=44	=44	=44	=44	=44	=44	=44	=44	=44	=44	=44	=44	=44	=44	=44	=44
4c#\	4	.	8f#/L	.	2.ryy	4c#\	Ca-	4c#\	Ca-	4f#\	Ca-	4a\	Ca-	2.ryy	2.ryy	2.ryy	2.ryy
.	.	.	16e#X/L	.	.	.	.	.	.	.	.	.	.	.	.	.	.
.	.	.	16f#/JJ	.	.	.	.	.	.	.	.	.	.	.	.	.	.
!	!	!	!LO:TX:a:t=P:problem=mixed beam	!	!	!	!	!	!	!	!	!	!	!	!	!	!
4C#/	#	.	8e#/L	.	.	4C#/	-put	4c#\	-put	4e#X\	-put	4g#\	-put	.	.	.	.
.	.	.	8cc#\J	.	.	.	.	.	.	.	.	.	.	.	.	.	.
!	!	!	!LO:LB:g=original	!	!	!	!	!	!	!	!	!	!	!	!	!	!
4r	.	.	8ee#X\L	.	.	4r	.	4r	.	4r	.	4r	.	.	.	.	.
.	.	.	8gg#\J	.	.	.	.	.	.	.	.	.	.	.	.	.	.
=45	=45	=45	=45	=45	=45	=45	=45	=45	=45	=45	=45	=45	=45	=45	=45	=45	=45
8.F#\L	.	.	8.ff#\L	.	2.ryy	2F#\	e-	2c#\	E-	2a\	E-	2ff#\	E-	2.ryy	2.ryy	2.ryy	2.ryy
16F#\K	.	.	16cc#\K	.	.	.	.	.	.	.	.	.	.	.	.	.	.
8.F#\	.	.	8.aa\	.	.	.	.	.	.	.	.	.	.	.	.	.	.
16F#\K	.	.	16ff#\K	.	.	.	.	.	.	.	.	.	.	.	.	.	.
8.A\	6_	.	8.cc#\	.	.	4A\	-xal-	4c#\	-xal-	4a\	-xal-	4ff#\	-xal-	.	.	.	.
16A\Jk	X	.	16ff#\Jk	.	.	.	.	.	.	.	.	.	.	.	.	.	.
!LO:LB:g-original	!	!	!	!	!	!	!	!	!	!	!	!	!	!	!	!	!
=46	=46	=46	=46	=46	=46	=46	=46	=46	=46	=46	=46	=46	=46	=46	=46	=46	=46
8.c#\L	#_	.	8.ee#X\L	.	2.ryy	(4c#\	-ta-	2c#\	-ta-	2g#\	-ta-	2ee#X\	-ta-	2.ryy	2.ryy	2.ryy	2.ryy
16c#\K	.	.	16cc#\K	.	.	.	.	.	.	.	.	.	.	.	.	.	.
8.B\	.	.	8.ee#\	.	.	4B\)	.	.	.	.	.	.	.	.	.	.	.
16B\K	.	.	16cc#\K	.	.	.	.	.	.	.	.	.	.	.	.	.	.
8.A\	6	.	8.ff#\	.	.	4A\	-bit	4c#\	-bit	4a\	-bit	4ff#\	-bit	.	.	.	.
16A\Jk	.	.	16cc#\Jk	.	.	.	.	.	.	.	.	.	.	.	.	.	.
!	!	!	!	!	!	!LO:LB:g=original	!	!LO:LB:g=original	!	!LO:LB:g=original	!	!	!	!	!	!	!
=47	=47	=47	=47	=47	=47	=47	=47	=47	=47	=47	=47	=47	=47	=47	=47	=47	=47
!LO:TX:a:t=P:problem=mixed beam	!	!	!	!	!	!	!	!	!	!	!	!	!	!	!	!	!
8.B\L	6	.	8.gg#\L	.	2.ryy	4B\	Ca-	4d\	Ca-	(4b\	Ca-	4gg#\	Ca-	2.ryy	2.ryy	2.ryy	2.ryy
16B\K	.	.	16b\Jk	.	.	.	.	.	.	.	.	.	.	.	.	.	.
8.c#\	4	.	8.a\L	.	.	4c#\	.	2c#\	.	4a\)	.	4ff#\	.	.	.	.	.
16c#\K	#	.	16ff#\K	.	.	.	.	.	.	.	.	.	.	.	.	.	.
8.C#/	.	.	8.g#\	.	.	4C#/	.	.	.	4g#\	.	4ee#X\	.	.	.	.	.
16C#/Jk	.	.	16ee#X\Jk	.	.	.	.	.	.	.	.	.	.	.	.	.	.
=48	=48	=48	=48	=48	=48	=48	=48	=48	=48	=48	=48	=48	=48	=48	=48	=48	=48
4F#\	.	.	4ff#\	.	2.ryy	4F#\	-put	4c#\	-put	4a\	-put	4ff#\	-put	2.ryy	2.ryy	2.ryy	2.ryy
4r	.	.	4r	.	.	4F#\	e-	4c#\	E-	8f#\L	ex-	8a\L	ex-	.	.	.	.
.	.	.	.	.	.	.	.	.	.	8e#X\J	.	8g#\J	.	.	.	.	.
4r	.	.	4r	.	.	4F#\	-xal-	4c#\	-xal-	8f#\L	-al-	8a\L	-al-	.	.	.	.
.	.	.	.	.	.	.	.	.	.	8g#\J	.	8b\J	.	.	.	.	.
!	!	!	!	!	!	!	!	!	!	!	!	!LO:LB:g=original	!	!	!	!	!
=49	=49	=49	=49	=49	=49	=49	=49	=49	=49	=49	=49	=49	=49	=49	=49	=49	=49
*2\right	*	*	*	*	*	*	*	*	*	*	*	*	*	*	*	*	*
!LO:TX:a:i:t=pedal&colon;	!	!	!	!	!	!	!	!	!	!	!	!	!	!	!	!	!
2.F#\	.	.	1.r	.	2.ryy	2F#\	-ta-	2c#\	-ta-	(4a\	-ta-	(4cc#\	-ta-	2.ryy	2.ryy	2.ryy	2.ryy
.	.	.	.	.	.	.	.	.	.	4g#\)	.	4b\)	.	.	.	.	.
.	.	.	.	.	.	4F#\	-bit	4c#\	-bit	4f#\	-bit	4a\	-bit	.	.	.	.
=50	=50	=50	=50	=50	=50	=50	=50	=50	=50	=50	=50	=50	=50	=50	=50	=50	=50
2.C#/	.	.	.	.	2.ryy	2.C#/	Ca-	2.c#\	Ca-	4e#X\	ca-	4g#\	Ca-	2.ryy	2.ryy	2.ryy	2.ryy
.	.	.	.	.	.	.	.	.	.	4f#\	.	4a\	.	.	.	.	.
.	.	.	.	.	.	.	.	.	.	4g#\	.	4b\	.	.	.	.	.
=51	=51	=51	=51	=51	=51	=51	=51	=51	=51	=51	=51	=51	=51	=51	=51	=51	=51
2FF#/	.	.	2.r	.	2.ryy	2F#\	-put	2c#\	-put	2f#\	-put	2a\	-put	2.ryy	2.ryy	2.ryy	2.ryy
!	!	!	!	!	!	!	!	!	!	!	!	!LO:TX:b:i:t=Verte gloria	!	!	!	!	!
4r	.	.	.	.	.	4r	.	4r	.	4r	.	4r	.	.	.	.	.
==	==	==	==	==	==	==	==	==	==	==	==	==	==	==	==	==	==
*-	*-	*-	*-	*-	*-	*-	*-	*-	*-	*-	*-	*-	*-	*-	*-	*-	*-
!!!system-decoration: [(g1)][(g2)][(g3)][(g4)]s11
!!!RDF**kern: | = vertical stroke
!!!ENC: Berenika Jozajtis
!!!END: 2020-07-17
!!!ENC: Marta Lawrence
!!!END: 2021-01-14
!!!YEC: Copyright 2022 Narodowy Instytut Fryderyka Chopina (https://polishscores.org)
!!!YEM: License CC-BY-4.0 (https://creativecommons.org/licenses/by/4.0)
